src/icons/play-outline.svg

<svg viewBox="0 0 9 10" fill="none" xmlns="http://www.w3.org/2000/svg">
<path d="M0.617999 10C0.726149 10 0.834299 9.9691 0.926999 9.92275L8.52839 5.53496C8.71379 5.42681 8.83739 5.22596 8.83739 4.99421C8.83739 4.76246 8.71379 4.56161 8.52839 4.45346L0.926999 0.0811124C0.741599 -0.0270375 0.494399 -0.0270375 0.309 0.0811124C0.1236 0.189262 0 0.390112 0 0.621862V9.39745C0 9.61375 0.1236 9.83005 0.309 9.9382C0.4017 9.98455 0.509849 10 0.617999 10ZM1.236 1.67246L6.98339 4.99421L1.236 8.31595V1.67246Z" fill="currentColor"/>
</svg>

<svg viewBox="0 0 9 10" fill="none" xmlns="http://www.w3.org/2000/svg"><path d="M.618 10c.108 0 .216-.03.309-.077l7.601-4.388a.623.623 0 00.31-.54.623.623 0 00-.31-.542L.927.081a.63.63 0 00-.618 0A.623.623 0 000 .621v8.776c0 .217.124.433.309.541.093.047.2.062.309.062zm.618-8.328l5.747 3.322-5.747 3.322V1.672z" fill="currentColor"/></svg>
